src/lib/packages/icons/src/assets/filled/hand-grip.svg

<svg width="24" height="24" viewBox="0 0 24 24" fill="none" xmlns="http://www.w3.org/2000/svg">
<path d="M4.49002 20.93C3.42002 20.64 2.78003 19.54 3.07003 18.46L5.26003 10.29C5.40003 9.76001 5.94 9.45001 6.47 9.59001L8.46005 10.12C8.99005 10.26 9.3 10.8 9.16 11.33L6.97 19.5C6.68 20.57 5.58002 21.21 4.50002 20.92L4.49002 20.93ZM19.51 20.93C18.44 21.22 17.33 20.58 17.04 19.51L14.85 11.34C14.71 10.81 15.02 10.27 15.55 10.13L15.86 10.05L15.14 8.06001C14.47 9.08001 13.32 9.76001 12.01 9.76001C10.7 9.76001 9.50005 9.05002 8.84005 7.99002C8.70005 8.16002 8.49004 8.26001 8.27004 8.26001C8.19004 8.26001 8.10003 8.25002 8.01003 8.22002C7.62003 8.08002 7.42002 7.65001 7.56002 7.26001L8.54 4.56001C8.56 4.51001 8.59002 4.47001 8.62002 4.43001C9.22002 3.16001 10.51 2.27002 12 2.27002C13.49 2.27002 14.89 3.22002 15.46 4.57002L17.29 9.60002C17.29 9.60002 17.29 9.65001 17.3 9.67001L17.54 9.61002C18.07 9.47002 18.61 9.78001 18.75 10.31L20.94 18.48C21.23 19.55 20.59 20.66 19.52 20.95L19.51 20.93ZM14.0901 5.18001L14.06 5.11002C13.71 4.31002 12.92 3.75002 12 3.75002C10.76 3.75002 9.75002 4.76002 9.75002 6.00002C9.75002 7.24002 10.76 8.25002 12 8.25002C13.24 8.25002 14.25 7.24002 14.25 6.00002C14.25 5.71002 14.1901 5.43001 14.0901 5.18001Z" fill="currentColor"/>
</svg>

<svg xmlns="http://www.w3.org/2000/svg" width="24" height="24" fill="none"><path fill="currentColor" d="M4.49 20.93a2.015 2.015 0 0 1-1.42-2.47l2.19-8.17c.14-.53.68-.84 1.21-.7l1.99.53c.53.14.84.68.7 1.21L6.97 19.5a2.015 2.015 0 0 1-2.47 1.42l-.01.01Zm15.02 0a2.02 2.02 0 0 1-2.47-1.42l-2.19-8.17a.986.986 0 0 1 .7-1.21l.31-.08-.72-1.99a3.743 3.743 0 0 1-3.13 1.7 3.77 3.77 0 0 1-3.17-1.77c-.14.17-.35.27-.57.27-.08 0-.17-.01-.26-.04a.75.75 0 0 1-.45-.96l.98-2.7c.02-.05.05-.09.08-.13.6-1.27 1.89-2.16 3.38-2.16s2.89.95 3.46 2.3l1.83 5.03s0 .05.01.07l.24-.06a.986.986 0 0 1 1.21.7l2.19 8.17a2.02 2.02 0 0 1-1.42 2.47l-.01-.02ZM14.09 5.18l-.03-.07c-.35-.8-1.14-1.36-2.06-1.36-1.24 0-2.25 1.01-2.25 2.25S10.76 8.25 12 8.25 14.25 7.24 14.25 6c0-.29-.06-.57-.16-.82Z"/></svg>
